X:1
T:Title
%%score { ( 1 4 ) | ( 2 3 ) }
L:1/8
M:2/4
K:Bb
V:1 treble nm="Grand Piano"
V:4 treble 
V:2 bass 
V:3 bass 
V:1
 z2 z[Q:1/4=94] F | [DF]2 [EG][DF] | [Fd]2 [Ec][DB] | [DF]2 [_D=E][_EG] | [DF]3 [DB] | %5
 [EA]2 [EA][EA] | [EG]2 [EF][EF] | [DB]2 [Ec][DB] |[M:9/16] [DF]3/2-[DF][B,D]/-[B,D]/[CE] | %9
[M:2/4] [DF]2 [_D=E][_EG] | [DF]2 [B,D][DF] | [DB]2 [EA][Ec] | [DF]3 [DB] | [Fd]2 z2 | c2 z2 | %15
 z B, GA |[M:9/16] [DB]4- [DB]/ |[M:1/8] [DF] |[M:2/4] F2 Ac | e4 | [Fd]3 [Ec] | [DB]2 [DF][DF] | %22
 G2 AB | F2 [DB][Fd] | [Fc]2 [=Ed][Ec] | F3 F | [Fd]2 [Fd][Ec] | [DB]3 [FB] | [GB]2 [FA][EG] | %29
 [DF]2 [DF][DB] | [Fd]2 [Fc][FB] | [Gc]2 [GB]G | F2 GA |[M:3/8] [DB]3 |] %34
V:2
 z2 z D | z F, B,F, | z F, B,F, | z F, G,A, | z B, F,B, | z C A,C | z C A,C | z F, B,F, | %8
[M:9/16] z B,/-B,F,/-F,/A, |[M:2/4] z B, F,B, | z B, F,B, | z B, F,B, | z B, F,B, | z2 [F,E][B,D] | %14
 E2 [G,E][B,E] | [F,D]2 [F,E][CE] |[M:9/16] [B,,B,]4- [B,,B,]/ |[M:1/8] [B,,B,] | %18
[M:2/4] [F,A,C]2 [F,CF][F,A,F] | F2- [F,F][F,A,F] | [B,,B,]2 [B,,B,][B,,B,] | %21
 [B,,B,]2 [B,,B,][B,,B,] | [E,B,E]2 [E,A,E][E,G,E] | [D,B,]2 [B,,B,][B,,B,] | %24
 [C,A,]2 [C,B,][C,B,] | [F,A,]3 [F,A,] | [B,,B,]2 [B,,B,][B,,B,] | [B,,B,]2 [B,,B,][D,B,] | %28
 [E,B,]2 [E,B,][E,B,] | [B,,B,]2 [B,,B,][B,,B,] | [B,,B,]2 [C,A,][D,B,] | [E,B,]2 [E,B,][E,B,E] | %32
 [F,A,E]2 [F,B,E][F,CE] |[M:3/8] [B,,B,]3 |] %34
V:3
 x4 | B,,4 | B,,4 | B,,4 | B,,4 | F,4 | F,4 | B,,4 |[M:9/16] B,,3 z3/2 |[M:2/4] B,,4 | B,,4 | %11
 B,,4 | B,,4 | B,,4 | E,4 | x4 |[M:9/16] x9/2 |[M:1/8] x |[M:2/4] x4 | [F,A,]2 z2 | x4 | x4 | x4 | %23
 x4 | x4 | x4 | x4 | x4 | x4 | x4 | x4 | x4 | x4 |[M:3/8] x3 |] %34
V:4
 x4 | x4 | x4 | x4 | x4 | x4 | x4 | x4 |[M:9/16] x9/2 |[M:2/4] x4 | x4 | x4 | x4 | z B, cB | %14
 z G, BG | F2 z2 |[M:9/16] x9/2 |[M:1/8] x |[M:2/4] x4 | z2 A,e | x4 | x4 | x4 | x4 | x4 | x4 | %26
 x4 | x4 | x4 | x4 | x4 | x4 | x4 |[M:3/8] x3 |] %34

